X: 33637
T: Rambler, The
R: jig
M: 6/8
K: Amajor
~E3 E2A|FEC E2e|fec ABc|~d3 BAF|
~E3 EAA|FEC E2e|fec ABc|BAG A3:|
|:~e3 Ace|a~f2 fga|ece fec|~B3 Bcd|
~e3 Ace|a~f2 fga|ece fec|BAG A3:|

